packages/dnb-eufemia/assets/icons/pause.svg

<svg width="16" height="16" viewBox="0 0 16 16" fill="none" xmlns="http://www.w3.org/2000/svg">
<path d="M5.22222 2H4.11111C3.49746 2 3 2.48842 3 3.09091V12.9091C3 13.5116 3.49746 14 4.11111 14H5.22222C5.83587 14 6.33333 13.5116 6.33333 12.9091V3.09091C6.33333 2.48842 5.83587 2 5.22222 2Z" stroke="black" stroke-width="1.5" stroke-linecap="round" stroke-linejoin="round"/>
<path d="M11.8889 2H10.7778C10.1641 2 9.66667 2.48842 9.66667 3.09091V12.9091C9.66667 13.5116 10.1641 14 10.7778 14H11.8889C12.5025 14 13 13.5116 13 12.9091V3.09091C13 2.48842 12.5025 2 11.8889 2Z" stroke="black" stroke-width="1.5" stroke-linecap="round" stroke-linejoin="round"/>
</svg>

<svg width="16" height="16" viewBox="0 0 16 16" fill="none" xmlns="http://www.w3.org/2000/svg"><path d="M5.222 2h-1.11A1.1 1.1 0 0 0 3 3.09v9.82A1.1 1.1 0 0 0 4.111 14h1.111a1.1 1.1 0 0 0 1.111-1.09V3.09A1.1 1.1 0 0 0 5.223 2Zm6.667 0h-1.111a1.1 1.1 0 0 0-1.111 1.09v9.82a1.1 1.1 0 0 0 1.11 1.09h1.112A1.1 1.1 0 0 0 13 12.91V3.09C13 2.489 12.502 2 11.889 2Z" stroke="#000" stroke-width="1.5" stroke-linecap="round" stroke-linejoin="round"/></svg>
